Newaita-dark/apps/32/com.github.ronnydo.wammer.svg

<svg height="32" viewBox="0 0 32 32" width="32" xmlns="http://www.w3.org/2000/svg" xmlns:xlink="http://www.w3.org/1999/xlink"><linearGradient id="a"><stop offset="0" stop-opacity=".313726"/><stop offset=".222222" stop-opacity=".27451"/><stop offset="1" stop-opacity="0"/></linearGradient><radialGradient id="b" cx="450.908936" cy="189.579361" gradientTransform="matrix(.00000017 -.0781325 -.140638 -.0000001 42.207827 63.507128)" gradientUnits="userSpaceOnUse" r="21.166656" xlink:href="#a"/><radialGradient id="c" cx="450.908936" cy="189.579361" gradientTransform="matrix(-.00000017 .0781325 .140638 .0000001 -10.454791 -7.615683)" gradientUnits="userSpaceOnUse" r="21.166656" xlink:href="#a"/><radialGradient id="d" cx="450.908936" cy="189.579361" gradientTransform="matrix(-.00000017 -.0781325 .140638 -.0000001 -10.454791 63.507128)" gradientUnits="userSpaceOnUse" r="21.166656" xlink:href="#a"/><radialGradient id="e" cx="450.908936" cy="189.579361" gradientTransform="matrix(.00000017 .0781325 -.140638 .0000001 42.207825 -7.615684)" gradientUnits="userSpaceOnUse" r="21.166656" xlink:href="#a"/><linearGradient id="f" gradientUnits="userSpaceOnUse" x1="15.876524" x2="15.876524" y1="28.033934" y2="4.219148"><stop offset="0" stop-color="#009688"/><stop offset="1" stop-color="#26a69a"/></linearGradient><linearGradient id="g" gradientUnits="userSpaceOnUse" x1="15.876524" x2="15.876524" y1="28.033934" y2="4.219148"><stop offset="0" stop-color="#78909c"/><stop offset="1" stop-color="#90a4ae"/></linearGradient><linearGradient id="h" gradientUnits="userSpaceOnUse" x1="15.876524" x2="15.876524" y1="28.033934" y2="2.89610399997"><stop offset="0" stop-color="#ffa726"/><stop offset="1" stop-color="#ffb74d"/></linearGradient><linearGradient id="i" gradientUnits="userSpaceOnUse" x1="15.876524" x2="15.876524" y1="28.033934" y2="4.219148"><stop offset="0" stop-color="#f44336"/><stop offset="1" stop-color="#ef5350"/></linearGradient><path d="m15.875 27.945312h2.648438v-1.324218h-2.648438zm0 0" fill="url(#b)"/><path d="m15.875 27.945312h-2.644531v1.324219h2.644531zm0 0" fill="url(#c)"/><path d="m15.875 27.945312h-2.644531v-1.324218h2.644531zm0 0" fill="url(#d)"/><path d="m15.875 27.945312h2.648438v1.324219h-2.648438zm0 0" fill="url(#e)"/><path d="m15.875 20.261719c-1.9375 0-3.679688.828125-4.886719 2.148437l3.523438 5.128906c.703125.660157 2.027343.660157 2.730469 0l3.523437-5.128906c-1.207031-1.320312-2.949219-2.148437-4.890625-2.148437zm0 0" fill="url(#f)"/><path d="m15.875 4.382812c-5.28125 0-10.128906 1.804688-13.960938 4.832032l2.257813 3.285156c3.1875-2.59375 7.257813-4.144531 11.703125-4.144531 4.449219 0 8.519531 1.550781 11.707031 4.144531l2.253907-3.285156c-3.828126-3.027344-8.675782-4.832032-13.960938-4.832032zm0 0" fill="url(#g)"/><path d="m15.875 12.324219c-3.609375 0-6.902344 1.300781-9.441406 3.460937l2.265625 3.296875c1.882812-1.734375 4.402343-2.789062 7.175781-2.789062 2.777344 0 5.292969 1.054687 7.179688 2.789062l2.265624-3.296875c-2.539062-2.160156-5.832031-3.460937-9.445312-3.460937zm0 0" fill="url(#f)"/><path d="m15.875 12.324219c-3.609375 0-6.902344 1.300781-9.441406 3.460937l2.265625 3.296875c1.882812-1.734375 4.402343-2.789062 7.175781-2.789062 2.777344 0 5.292969 1.054687 7.179688 2.789062l2.265624-3.296875c-2.539062-2.160156-5.832031-3.460937-9.445312-3.460937zm0 0" fill="url(#g)"/><path d="m15.875 20.261719c-1.9375 0-3.679688.828125-4.886719 2.148437l3.523438 5.128906c.703125.660157 2.027343.660157 2.730469 0l3.523437-5.128906c-1.207031-1.320312-2.949219-2.148437-4.890625-2.148437zm0 0" fill="url(#g)"/><path d="m15.875 8.105469c-4.445312 0-8.515625 1.550781-11.703125 4.144531l-2.144531-3.121094c-.039063.027344-.074219.058594-.113282.085938l2.257813 3.285156c3.1875-2.59375 7.257813-4.144531 11.703125-4.144531 4.449219 0 8.519531 1.550781 11.707031 4.144531l2.253907-3.285156c-.035157-.027344-.074219-.058594-.109376-.085938l-2.144531 3.121094c-3.1875-2.59375-7.257812-4.144531-11.707031-4.144531zm-9.335938 7.589843c-.035156.03125-.070312.058594-.105468.089844l2.265625 3.296875c1.882812-1.734375 4.402343-2.789062 7.175781-2.789062 2.777344 0 5.292969 1.054687 7.179688 2.789062l2.265624-3.296875c-.035156-.03125-.070312-.058594-.109374-.089844l-2.15625 3.140626c-1.886719-1.734376-4.402344-2.792969-7.179688-2.792969-2.773438 0-5.292969 1.058593-7.175781 2.792969zm4.546876 6.609376c-.035157.035156-.066407.070312-.097657.105468l3.523438 5.128906c.703125.660157 2.027343.660157 2.730469 0l3.523437-5.128906c-.03125-.035156-.066406-.070312-.097656-.105468l-3.425781 4.984374c-.703126.664063-2.027344.664063-2.730469 0zm0 0" fill-opacity=".235294"/><path d="m15.875 4.382812c-5.28125 0-10.128906 1.804688-13.960938 4.832032l.148438.214844c3.808594-2.957032 8.597656-4.714844 13.8125-4.714844 5.21875 0 10.007812 1.757812 13.8125 4.714844l.148438-.214844c-3.828126-3.027344-8.675782-4.832032-13.960938-4.832032zm0 7.941407c-3.609375 0-6.902344 1.300781-9.441406 3.460937l.144531.210938c2.515625-2.089844 5.757813-3.34375 9.296875-3.34375 3.542969 0 6.78125 1.253906 9.300781 3.34375l.144531-.210938c-2.539062-2.160156-5.832031-3.460937-9.445312-3.460937zm0 7.9375c-1.9375 0-3.679688.828125-4.886719 2.148437l.128907.191406c1.203124-1.242187 2.886718-2.011718 4.757812-2.011718s3.558594.769531 4.757812 2.011718l.132813-.191406c-1.207031-1.320312-2.949219-2.148437-4.890625-2.148437zm0 0" fill="#fff" fill-opacity=".392157"/><path d="m15.875 4.289062c-5.304688 0-10.171875 1.8125-14.015625 4.851563l-.070313.054687 2.363282 3.441407.078125-.066407c3.171875-2.578124 7.222656-4.121093 11.644531-4.121093 4.425781 0 8.476562 1.542969 11.644531 4.121093l.082031.066407 2.363282-3.441407-.070313-.054687c-3.847656-3.039063-8.714843-4.851563-14.019531-4.851563zm0 .1875c5.230469 0 10.03125 1.777344 13.835938 4.757813l-2.152344 3.128906c-3.1875-2.566406-7.25-4.101562-11.683594-4.101562-4.429688 0-8.492188 1.535156-11.679688 4.101562l-2.152343-3.128906c3.804687-2.980469 8.601562-4.757813 13.832031-4.757813zm0 7.753907c-3.632812 0-6.949219 1.308593-9.503906 3.484375l-.0625.054687 2.375 3.457031.078125-.074218c1.867187-1.71875 4.363281-2.765625 7.113281-2.765625 2.753906 0 5.246094 1.046875 7.113281 2.765625l.082031.074218 2.375-3.457031-.0625-.054687c-2.554687-2.175782-5.875-3.484375-9.507812-3.484375zm0 .1875c3.558594 0 6.804688 1.269531 9.320312 3.386719l-2.160156 3.140624c-1.890625-1.707031-4.398437-2.746093-7.160156-2.746093-2.757812 0-5.265625 1.039062-7.15625 2.746093l-2.160156-3.140624c2.511718-2.117188 5.761718-3.386719 9.316406-3.386719zm0 7.75c-1.964844 0-3.730469.839843-4.957031 2.179687l-.050781.054688 3.574218 5.195312.007813.007813c.371093.351562.902343.523437 1.425781.523437.527344 0 1.058594-.171875 1.429688-.523437l.007812-.007813 3.574219-5.195312-.050781-.054688c-1.226563-1.339844-2.992188-2.179687-4.960938-2.179687zm0 .1875c1.890625 0 3.582031.792969 4.769531 2.066406l-3.472656 5.050781c-.332031.308594-.8125.46875-1.296875.46875-.480469 0-.960938-.160156-1.292969-.46875l-3.472656-5.050781c1.1875-1.273437 2.878906-2.066406 4.765625-2.066406zm0 0" fill="#212121"/><path d="m15.875 21.855469-1-4.859375-4.144531 2.726562 2.726562-4.140625-4.855469-1.003906 4.855469-1.003906-2.726562-4.140625 4.144531 2.722656 1-4.855469 1.003906 4.855469 4.144532-2.722656-2.726563 4.140625 4.855469 1.003906-4.855469 1.003906 2.726563 4.140625-4.144532-2.726562zm0 0" fill="url(#h)"/><path d="m10.730469 9.980469 2.410156 3.660156.316406-.066406-2.09375-3.179688zm10.292969 0-.636719.414062-2.089844 3.179688.316406.066406zm-11.101563 4.871093-1.320313.273438 4.539063.9375.316406-.480469zm11.90625 0-3.53125.730469.316406.480469 4.539063-.9375zm-6.953125 2.144532-3.511719 2.308594-.632812.964843 4.144531-2.726562 1 4.859375 1.003906-4.859375 4.144532 2.726562-.636719-.964843-3.507813-2.308594-1.003906 4.859375zm0 0" fill-opacity=".235294"/><path d="m253.975747 134.65411-15.998473-77.742576-66.306168 43.620834 43.620835-66.243674-77.680082-16.060966 77.680082-16.060966-43.620835-66.243674 66.306168 43.55834 15.998473-77.680082 16.060966 77.680082 66.306168-43.55834-43.620835 66.243674 77.680082 16.060966-77.680082 16.060966 43.620835 66.243674-66.306168-43.620834zm0 0" fill="none" stroke="#212121" stroke-linecap="round" stroke-linejoin="round" stroke-width="3" transform="matrix(.062506 0 0 .062506 0 13.438783)"/><path d="m15.84375 17.65625-.472656-2.277344-1.941406 1.277344 1.277343-1.941406-2.277343-.46875 2.277343-.472656-1.277343-1.941407 1.941406 1.277344.472656-2.273437.46875 2.273437 1.941406-1.277344-1.277344 1.941407 2.277344.472656-2.277344.46875 1.277344 1.941406-1.941406-1.277344zm0 0" fill="url(#i)"/></svg>

<?xml version="1.0" encoding="UTF-8"?>
<svg xmlns="http://www.w3.org/2000/svg" xmlns:xlink="http://www.w3.org/1999/xlink" width="32px" height="32px" viewBox="0 0 32 32" version="1.1">
<defs>
<radialGradient id="radial0" gradientUnits="userSpaceOnUse" cx="450.908936" cy="189.579361" fx="450.908936" fy="189.579361" r="21.166656" gradientTransform="matrix(0.00000017417,-0.0781325,-0.140638,-0.000000101539,42.207827,63.507128)">
<stop offset="0" style="stop-color:rgb(0%,0%,0%);stop-opacity:0.313726;"/>
<stop offset="0.222222" style="stop-color:rgb(0%,0%,0%);stop-opacity:0.27451;"/>
<stop offset="1" style="stop-color:rgb(0%,0%,0%);stop-opacity:0;"/>
</radialGradient>
<radialGradient id="radial1" gradientUnits="userSpaceOnUse" cx="450.908936" cy="189.579361" fx="450.908936" fy="189.579361" r="21.166656" gradientTransform="matrix(-0.00000017417,0.0781325,0.140638,0.000000101539,-10.454791,-7.615683)">
<stop offset="0" style="stop-color:rgb(0%,0%,0%);stop-opacity:0.313726;"/>
<stop offset="0.222222" style="stop-color:rgb(0%,0%,0%);stop-opacity:0.27451;"/>
<stop offset="1" style="stop-color:rgb(0%,0%,0%);stop-opacity:0;"/>
</radialGradient>
<radialGradient id="radial2" gradientUnits="userSpaceOnUse" cx="450.908936" cy="189.579361" fx="450.908936" fy="189.579361" r="21.166656" gradientTransform="matrix(-0.00000017417,-0.0781325,0.140638,-0.000000101539,-10.454791,63.507128)">
<stop offset="0" style="stop-color:rgb(0%,0%,0%);stop-opacity:0.313726;"/>
<stop offset="0.222222" style="stop-color:rgb(0%,0%,0%);stop-opacity:0.27451;"/>
<stop offset="1" style="stop-color:rgb(0%,0%,0%);stop-opacity:0;"/>
</radialGradient>
<radialGradient id="radial3" gradientUnits="userSpaceOnUse" cx="450.908936" cy="189.579361" fx="450.908936" fy="189.579361" r="21.166656" gradientTransform="matrix(0.00000017417,0.0781325,-0.140638,0.000000101539,42.207825,-7.615684)">
<stop offset="0" style="stop-color:rgb(0%,0%,0%);stop-opacity:0.313726;"/>
<stop offset="0.222222" style="stop-color:rgb(0%,0%,0%);stop-opacity:0.27451;"/>
<stop offset="1" style="stop-color:rgb(0%,0%,0%);stop-opacity:0;"/>
</radialGradient>
<linearGradient id="linear0" gradientUnits="userSpaceOnUse" x1="254" y1="233.5" x2="254" y2="-147.5" gradientTransform="matrix(0.062506,0,0,0.062506,0,13.438783)">
<stop offset="0" style="stop-color:rgb(0%,58.823532%,53.333336%);stop-opacity:1;"/>
<stop offset="1" style="stop-color:rgb(14.901961%,65.098041%,60.392159%);stop-opacity:1;"/>
</linearGradient>
<linearGradient id="linear1" gradientUnits="userSpaceOnUse" x1="254" y1="233.5" x2="254" y2="-147.5" gradientTransform="matrix(0.062506,0,0,0.062506,0,13.438783)">
<stop offset="0" style="stop-color:rgb(47.058824%,56.470591%,61.176473%);stop-opacity:1;"/>
<stop offset="1" style="stop-color:rgb(56.470591%,64.313728%,68.235296%);stop-opacity:1;"/>
</linearGradient>
<linearGradient id="linear2" gradientUnits="userSpaceOnUse" x1="254" y1="233.5" x2="254" y2="-147.5" gradientTransform="matrix(0.062506,0,0,0.062506,0,13.438783)">
<stop offset="0" style="stop-color:rgb(0%,58.823532%,53.333336%);stop-opacity:1;"/>
<stop offset="1" style="stop-color:rgb(14.901961%,65.098041%,60.392159%);stop-opacity:1;"/>
</linearGradient>
<linearGradient id="linear3" gradientUnits="userSpaceOnUse" x1="254" y1="233.5" x2="254" y2="-147.5" gradientTransform="matrix(0.062506,0,0,0.062506,0,13.438783)">
<stop offset="0" style="stop-color:rgb(47.058824%,56.470591%,61.176473%);stop-opacity:1;"/>
<stop offset="1" style="stop-color:rgb(56.470591%,64.313728%,68.235296%);stop-opacity:1;"/>
</linearGradient>
<linearGradient id="linear4" gradientUnits="userSpaceOnUse" x1="254" y1="233.5" x2="254" y2="-147.5" gradientTransform="matrix(0.062506,0,0,0.062506,0,13.438783)">
<stop offset="0" style="stop-color:rgb(47.058824%,56.470591%,61.176473%);stop-opacity:1;"/>
<stop offset="1" style="stop-color:rgb(56.470591%,64.313728%,68.235296%);stop-opacity:1;"/>
</linearGradient>
<linearGradient id="linear5" gradientUnits="userSpaceOnUse" x1="254" y1="233.5" x2="254" y2="-168.666672" gradientTransform="matrix(0.062506,0,0,0.062506,0,13.438783)">
<stop offset="0" style="stop-color:rgb(100%,65.490198%,14.901961%);stop-opacity:1;"/>
<stop offset="1" style="stop-color:rgb(100%,71.764708%,30.19608%);stop-opacity:1;"/>
</linearGradient>
<linearGradient id="linear6" gradientUnits="userSpaceOnUse" x1="254" y1="233.5" x2="254" y2="-147.5" gradientTransform="matrix(0.062506,0,0,0.062506,0,13.438783)">
<stop offset="0" style="stop-color:rgb(95.686275%,26.274511%,21.176471%);stop-opacity:1;"/>
<stop offset="1" style="stop-color:rgb(93.725491%,32.549021%,31.37255%);stop-opacity:1;"/>
</linearGradient>
</defs>
<g id="surface1">
<path style=" stroke:none;fill-rule:nonzero;fill:url(#radial0);" d="M 15.875 27.945312 L 18.523438 27.945312 L 18.523438 26.621094 L 15.875 26.621094 Z M 15.875 27.945312 "/>
<path style=" stroke:none;fill-rule:nonzero;fill:url(#radial1);" d="M 15.875 27.945312 L 13.230469 27.945312 L 13.230469 29.269531 L 15.875 29.269531 Z M 15.875 27.945312 "/>
<path style=" stroke:none;fill-rule:nonzero;fill:url(#radial2);" d="M 15.875 27.945312 L 13.230469 27.945312 L 13.230469 26.621094 L 15.875 26.621094 Z M 15.875 27.945312 "/>
<path style=" stroke:none;fill-rule:nonzero;fill:url(#radial3);" d="M 15.875 27.945312 L 18.523438 27.945312 L 18.523438 29.269531 L 15.875 29.269531 Z M 15.875 27.945312 "/>
<path style=" stroke:none;fill-rule:nonzero;fill:url(#linear0);" d="M 15.875 20.261719 C 13.9375 20.261719 12.195312 21.089844 10.988281 22.410156 L 14.511719 27.539062 C 15.214844 28.199219 16.539062 28.199219 17.242188 27.539062 L 20.765625 22.410156 C 19.558594 21.089844 17.816406 20.261719 15.875 20.261719 Z M 15.875 20.261719 "/>
<path style=" stroke:none;fill-rule:nonzero;fill:url(#linear1);" d="M 15.875 4.382812 C 10.59375 4.382812 5.746094 6.1875 1.914062 9.214844 L 4.171875 12.5 C 7.359375 9.90625 11.429688 8.355469 15.875 8.355469 C 20.324219 8.355469 24.394531 9.90625 27.582031 12.5 L 29.835938 9.214844 C 26.007812 6.1875 21.160156 4.382812 15.875 4.382812 Z M 15.875 4.382812 "/>
<path style=" stroke:none;fill-rule:nonzero;fill:url(#linear2);" d="M 15.875 12.324219 C 12.265625 12.324219 8.972656 13.625 6.433594 15.785156 L 8.699219 19.082031 C 10.582031 17.347656 13.101562 16.292969 15.875 16.292969 C 18.652344 16.292969 21.167969 17.347656 23.054688 19.082031 L 25.320312 15.785156 C 22.78125 13.625 19.488281 12.324219 15.875 12.324219 Z M 15.875 12.324219 "/>
<path style=" stroke:none;fill-rule:nonzero;fill:url(#linear3);" d="M 15.875 12.324219 C 12.265625 12.324219 8.972656 13.625 6.433594 15.785156 L 8.699219 19.082031 C 10.582031 17.347656 13.101562 16.292969 15.875 16.292969 C 18.652344 16.292969 21.167969 17.347656 23.054688 19.082031 L 25.320312 15.785156 C 22.78125 13.625 19.488281 12.324219 15.875 12.324219 Z M 15.875 12.324219 "/>
<path style=" stroke:none;fill-rule:nonzero;fill:url(#linear4);" d="M 15.875 20.261719 C 13.9375 20.261719 12.195312 21.089844 10.988281 22.410156 L 14.511719 27.539062 C 15.214844 28.199219 16.539062 28.199219 17.242188 27.539062 L 20.765625 22.410156 C 19.558594 21.089844 17.816406 20.261719 15.875 20.261719 Z M 15.875 20.261719 "/>
<path style=" stroke:none;fill-rule:nonzero;fill:rgb(0%,0%,0%);fill-opacity:0.235294;" d="M 15.875 8.105469 C 11.429688 8.105469 7.359375 9.65625 4.171875 12.25 L 2.027344 9.128906 C 1.988281 9.15625 1.953125 9.1875 1.914062 9.214844 L 4.171875 12.5 C 7.359375 9.90625 11.429688 8.355469 15.875 8.355469 C 20.324219 8.355469 24.394531 9.90625 27.582031 12.5 L 29.835938 9.214844 C 29.800781 9.1875 29.761719 9.15625 29.726562 9.128906 L 27.582031 12.25 C 24.394531 9.65625 20.324219 8.105469 15.875 8.105469 Z M 6.539062 15.695312 C 6.503906 15.726562 6.46875 15.753906 6.433594 15.785156 L 8.699219 19.082031 C 10.582031 17.347656 13.101562 16.292969 15.875 16.292969 C 18.652344 16.292969 21.167969 17.347656 23.054688 19.082031 L 25.320312 15.785156 C 25.285156 15.753906 25.25 15.726562 25.210938 15.695312 L 23.054688 18.835938 C 21.167969 17.101562 18.652344 16.042969 15.875 16.042969 C 13.101562 16.042969 10.582031 17.101562 8.699219 18.835938 Z M 11.085938 22.304688 C 11.050781 22.339844 11.019531 22.375 10.988281 22.410156 L 14.511719 27.539062 C 15.214844 28.199219 16.539062 28.199219 17.242188 27.539062 L 20.765625 22.410156 C 20.734375 22.375 20.699219 22.339844 20.667969 22.304688 L 17.242188 27.289062 C 16.539062 27.953125 15.214844 27.953125 14.511719 27.289062 Z M 11.085938 22.304688 "/>
<path style=" stroke:none;fill-rule:nonzero;fill:rgb(100%,100%,100%);fill-opacity:0.392157;" d="M 15.875 4.382812 C 10.59375 4.382812 5.746094 6.1875 1.914062 9.214844 L 2.0625 9.429688 C 5.871094 6.472656 10.660156 4.714844 15.875 4.714844 C 21.09375 4.714844 25.882812 6.472656 29.6875 9.429688 L 29.835938 9.214844 C 26.007812 6.1875 21.160156 4.382812 15.875 4.382812 Z M 15.875 12.324219 C 12.265625 12.324219 8.972656 13.625 6.433594 15.785156 L 6.578125 15.996094 C 9.09375 13.90625 12.335938 12.652344 15.875 12.652344 C 19.417969 12.652344 22.65625 13.90625 25.175781 15.996094 L 25.320312 15.785156 C 22.78125 13.625 19.488281 12.324219 15.875 12.324219 Z M 15.875 20.261719 C 13.9375 20.261719 12.195312 21.089844 10.988281 22.410156 L 11.117188 22.601562 C 12.320312 21.359375 14.003906 20.589844 15.875 20.589844 C 17.746094 20.589844 19.433594 21.359375 20.632812 22.601562 L 20.765625 22.410156 C 19.558594 21.089844 17.816406 20.261719 15.875 20.261719 Z M 15.875 20.261719 "/>
<path style=" stroke:none;fill-rule:nonzero;fill:rgb(12.941177%,12.941177%,12.941177%);fill-opacity:1;" d="M 15.875 4.289062 C 10.570312 4.289062 5.703125 6.101562 1.859375 9.140625 L 1.789062 9.195312 L 4.152344 12.636719 L 4.230469 12.570312 C 7.402344 9.992188 11.453125 8.449219 15.875 8.449219 C 20.300781 8.449219 24.351562 9.992188 27.519531 12.570312 L 27.601562 12.636719 L 29.964844 9.195312 L 29.894531 9.140625 C 26.046875 6.101562 21.179688 4.289062 15.875 4.289062 Z M 15.875 4.476562 C 21.105469 4.476562 25.90625 6.253906 29.710938 9.234375 L 27.558594 12.363281 C 24.371094 9.796875 20.308594 8.261719 15.875 8.261719 C 11.445312 8.261719 7.382812 9.796875 4.195312 12.363281 L 2.042969 9.234375 C 5.847656 6.253906 10.644531 4.476562 15.875 4.476562 Z M 15.875 12.230469 C 12.242188 12.230469 8.925781 13.539062 6.371094 15.714844 L 6.308594 15.769531 L 8.683594 19.226562 L 8.761719 19.152344 C 10.628906 17.433594 13.125 16.386719 15.875 16.386719 C 18.628906 16.386719 21.121094 17.433594 22.988281 19.152344 L 23.070312 19.226562 L 25.445312 15.769531 L 25.382812 15.714844 C 22.828125 13.539062 19.507812 12.230469 15.875 12.230469 Z M 15.875 12.417969 C 19.433594 12.417969 22.679688 13.6875 25.195312 15.804688 L 23.035156 18.945312 C 21.144531 17.238281 18.636719 16.199219 15.875 16.199219 C 13.117188 16.199219 10.609375 17.238281 8.71875 18.945312 L 6.558594 15.804688 C 9.070312 13.6875 12.320312 12.417969 15.875 12.417969 Z M 15.875 20.167969 C 13.910156 20.167969 12.144531 21.007812 10.917969 22.347656 L 10.867188 22.402344 L 14.441406 27.597656 L 14.449219 27.605469 C 14.820312 27.957031 15.351562 28.128906 15.875 28.128906 C 16.402344 28.128906 16.933594 27.957031 17.304688 27.605469 L 17.3125 27.597656 L 20.886719 22.402344 L 20.835938 22.347656 C 19.609375 21.007812 17.84375 20.167969 15.875 20.167969 Z M 15.875 20.355469 C 17.765625 20.355469 19.457031 21.148438 20.644531 22.421875 L 17.171875 27.472656 C 16.839844 27.78125 16.359375 27.941406 15.875 27.941406 C 15.394531 27.941406 14.914062 27.78125 14.582031 27.472656 L 11.109375 22.421875 C 12.296875 21.148438 13.988281 20.355469 15.875 20.355469 Z M 15.875 20.355469 "/>
<path style=" stroke:none;fill-rule:nonzero;fill:url(#linear5);" d="M 15.875 21.855469 L 14.875 16.996094 L 10.730469 19.722656 L 13.457031 15.582031 L 8.601562 14.578125 L 13.457031 13.574219 L 10.730469 9.433594 L 14.875 12.15625 L 15.875 7.300781 L 16.878906 12.15625 L 21.023438 9.433594 L 18.296875 13.574219 L 23.152344 14.578125 L 18.296875 15.582031 L 21.023438 19.722656 L 16.878906 16.996094 Z M 15.875 21.855469 "/>
<path style=" stroke:none;fill-rule:nonzero;fill:rgb(0%,0%,0%);fill-opacity:0.235294;" d="M 10.730469 9.980469 L 13.140625 13.640625 L 13.457031 13.574219 L 11.363281 10.394531 Z M 21.023438 9.980469 L 20.386719 10.394531 L 18.296875 13.574219 L 18.613281 13.640625 Z M 9.921875 14.851562 L 8.601562 15.125 L 13.140625 16.0625 L 13.457031 15.582031 Z M 21.828125 14.851562 L 18.296875 15.582031 L 18.613281 16.0625 L 23.152344 15.125 Z M 14.875 16.996094 L 11.363281 19.304688 L 10.730469 20.269531 L 14.875 17.542969 L 15.875 22.402344 L 16.878906 17.542969 L 21.023438 20.269531 L 20.386719 19.304688 L 16.878906 16.996094 L 15.875 21.855469 Z M 14.875 16.996094 "/>
<path style="fill:none;stroke-width:3;stroke-linecap:round;stroke-linejoin:round;stroke:rgb(12.941177%,12.941177%,12.941177%);stroke-opacity:1;stroke-miterlimit:4;" d="M 253.975747 134.65411 L 237.977274 56.911534 L 171.671106 100.532368 L 215.291941 34.288694 L 137.611859 18.227728 L 215.291941 2.166762 L 171.671106 -64.076912 L 237.977274 -20.518572 L 253.975747 -98.198654 L 270.036713 -20.518572 L 336.342881 -64.076912 L 292.722046 2.166762 L 370.402128 18.227728 L 292.722046 34.288694 L 336.342881 100.532368 L 270.036713 56.911534 Z M 253.975747 134.65411 " transform="matrix(0.062506,0,0,0.062506,0,13.438783)"/>
<path style=" stroke:none;fill-rule:nonzero;fill:url(#linear6);" d="M 15.84375 17.65625 L 15.371094 15.378906 L 13.429688 16.65625 L 14.707031 14.714844 L 12.429688 14.246094 L 14.707031 13.773438 L 13.429688 11.832031 L 15.371094 13.109375 L 15.84375 10.835938 L 16.3125 13.109375 L 18.253906 11.832031 L 16.976562 13.773438 L 19.253906 14.246094 L 16.976562 14.714844 L 18.253906 16.65625 L 16.3125 15.378906 Z M 15.84375 17.65625 "/>
</g>
</svg>
